communes/5586.svg

<?xml version="1.0" encoding="UTF-8" standalone="no"?>
<!-- Created with Inkscape (http://www.inkscape.org/) -->
<svg
   xmlns:dc="http://purl.org/dc/elements/1.1/"
   xmlns:cc="http://creativecommons.org/ns#"
   xmlns:rdf="http://www.w3.org/1999/02/22-rdf-syntax-ns#"
   xmlns:svg="http://www.w3.org/2000/svg"
   xmlns="http://www.w3.org/2000/svg"
   xmlns:xlink="http://www.w3.org/1999/xlink"
   xmlns:sodipodi="http://sodipodi.sourceforge.net/DTD/sodipodi-0.dtd"
   xmlns:inkscape="http://www.inkscape.org/namespaces/inkscape"
   width="500"
   height="627.35999"
   id="svg2"
   sodipodi:version="0.32"
   inkscape:version="0.46"
   version="1.0"
   sodipodi:docname="Wappen Lausanne.svg"
   inkscape:output_extension="org.inkscape.output.svg.inkscape">
  <defs
     id="defs4">
    <inkscape:perspective
       sodipodi:type="inkscape:persp3d"
       inkscape:vp_x="0 : 526.18109 : 1"
       inkscape:vp_y="0 : 1000 : 0"
       inkscape:vp_z="744.09448 : 526.18109 : 1"
       inkscape:persp3d-origin="372.04724 : 350.78739 : 1"
       id="perspective10" />
    <radialGradient
       gradientTransform="matrix(1.21503,0,0,1.26667,-839.192,-490.489)"
       gradientUnits="userSpaceOnUse"
       xlink:href="#linearGradient2893"
       id="radialGradient3236"
       fy="579.93323"
       fx="858.04236"
       r="300"
       cy="579.93323"
       cx="858.04236" />
    <linearGradient
       id="linearGradient2955">
      <stop
         offset="0"
         style="stop-color: rgb(255, 255, 255); stop-opacity: 0;"
         id="stop2965" />
      <stop
         offset="1"
         style="stop-color: rgb(0, 0, 0); stop-opacity: 0.645833;"
         id="stop2959" />
    </linearGradient>
    <linearGradient
       id="linearGradient2893">
      <stop
         offset="0"
         style="stop-color: rgb(255, 255, 255); stop-opacity: 0.313726;"
         id="stop2895" />
      <stop
         offset="0.19"
         style="stop-color: rgb(255, 255, 255); stop-opacity: 0.25098;"
         id="stop2897" />
      <stop
         offset="0.60000002"
         style="stop-color: rgb(107, 107, 107); stop-opacity: 0.12549;"
         id="stop2901" />
      <stop
         offset="1"
         style="stop-color: rgb(0, 0, 0); stop-opacity: 0.12549;"
         id="stop2899" />
    </linearGradient>
    <inkscape:perspective
       id="perspective2473"
       inkscape:persp3d-origin="301.5 : 254.33333 : 1"
       inkscape:vp_z="603 : 381.5 : 1"
       inkscape:vp_y="0 : 1000 : 0"
       inkscape:vp_x="0 : 381.5 : 1"
       sodipodi:type="inkscape:persp3d" />
    <radialGradient
       inkscape:collect="always"
       xlink:href="#linearGradient2893"
       id="radialGradient2507"
       gradientUnits="userSpaceOnUse"
       gradientTransform="matrix(1.21503,0,0,1.26667,-839.192,-490.489)"
       cx="858.04236"
       cy="579.93323"
       fx="858.04236"
       fy="579.93323"
       r="300" />
    <radialGradient
       inkscape:collect="always"
       xlink:href="#linearGradient2893"
       id="radialGradient2510"
       gradientUnits="userSpaceOnUse"
       gradientTransform="matrix(1.21503,0,0,1.26667,-1197.8349,-382.48396)"
       cx="858.04236"
       cy="579.93323"
       fx="858.04236"
       fy="579.93323"
       r="300" />
  </defs>
  <sodipodi:namedview
     id="base"
     pagecolor="#ffffff"
     bordercolor="#666666"
     borderopacity="1.0"
     inkscape:pageopacity="0.0"
     inkscape:pageshadow="2"
     inkscape:zoom="0.35"
     inkscape:cx="8.5714286"
     inkscape:cy="520"
     inkscape:document-units="px"
     inkscape:current-layer="layer1"
     showgrid="false"
     inkscape:window-width="1280"
     inkscape:window-height="750"
     inkscape:window-x="-8"
     inkscape:window-y="-8" />
  <metadata
     id="metadata7">
    <rdf:RDF>
      <cc:Work
         rdf:about="">
        <dc:format>image/svg+xml</dc:format>
        <dc:type
           rdf:resource="http://purl.org/dc/dcmitype/StillImage" />
      </cc:Work>
    </rdf:RDF>
  </metadata>
  <g
     inkscape:label="Ebene 1"
     inkscape:groupmode="layer"
     id="layer1"
     transform="translate(358.64286,-263.64185)">
    <g
       id="g2515"
       transform="matrix(0.7960199,0,0,0.7960199,-63.156006,187.66609)">
      <path
         d="M -357.14286,109.50504 L -357.14286,568.37404 C -357.14286,734.68504 -222.82886,869.50504 -57.14286,869.50504 C 108.54414,869.50504 242.85714,734.68504 242.85714,568.37404 L 242.85714,109.50504 L -357.14286,109.50504 z"
         id="path2509"
         style="fill:#ffffff" />
      <path
         d="M -357.14286,359.19304 L -357.14286,568.37404 C -357.14286,734.68504 -222.82886,869.50504 -57.14286,869.50504 C 108.54514,869.50504 242.85714,734.68504 242.85714,568.37404 L 242.85714,359.19304 L -357.14286,359.19304 z"
         id="path2472"
         style="fill:#e20909" />
      <line
         style="fill:none;stroke:#000000;stroke-width:3"
         id="line2592"
         x1="-357.14285"
         y1="359.19305"
         x2="242.85519"
         y2="359.19305" />
      <path
         d="M -357.14286,109.50504 L -357.14286,568.37298 C -357.14286,734.68358 -222.82832,869.50504 -57.14293,869.50504 C 108.54254,869.50504 242.85714,734.68358 242.85714,568.37298 L 242.85714,109.50504 L -357.14286,109.50504 z"
         id="path3239"
         style="fill:none;fill-opacity:1;stroke:#000000;stroke-width:3;stroke-miterlimit:4;stroke-dasharray:none;stroke-opacity:1" />
    </g>
  </g>
</svg>

<?xml version="1.0" encoding="UTF-8"?>
<svg version="1.0" viewBox="0 0 500 627.36" xmlns="http://www.w3.org/2000/svg" xmlns:cc="http://creativecommons.org/ns#" xmlns:dc="http://purl.org/dc/elements/1.1/" xmlns:rdf="http://www.w3.org/1999/02/22-rdf-syntax-ns#" xmlns:xlink="http://www.w3.org/1999/xlink">
<metadata>
<rdf:RDF>
<cc:Work rdf:about="">
<dc:format>image/svg+xml</dc:format>
<dc:type rdf:resource="http://purl.org/dc/dcmitype/StillImage"/>
</cc:Work>
</rdf:RDF>
</metadata>
<g transform="translate(358.64 -263.64)">
<g transform="matrix(.79602 0 0 .79602 -63.156 187.67)">
<path d="m-357.14 109.51v458.87c0 166.31 134.31 301.13 300 301.13 165.69 0 300-134.82 300-301.13v-458.87h-600z" fill="#fff"/>
<path d="m-357.14 359.19v209.18c0 166.31 134.31 301.13 300 301.13 165.69 0 300-134.82 300-301.13v-209.18h-600z" fill="#e20909"/>
<line x1="-357.14" x2="242.86" y1="359.19" y2="359.19" fill="none" stroke="#000" stroke-width="3"/>
<path d="m-357.14 109.51v458.87c0 166.31 134.31 301.13 300 301.13 165.69 0 300-134.82 300-301.13v-458.87h-600z" fill="none" stroke="#000" stroke-width="3"/>
</g>
</g>
</svg>
